src/pos-icons/animation.svg

<svg height="24" viewBox="0 0 24 24" width="24" xmlns="http://www.w3.org/2000/svg"><path d="m4 2c-1.11 0-2 .89-2 2v10h2v-10h10v-2zm4 4c-1.11 0-2 .89-2 2v10h2v-10h10v-2zm4 4c-1.11 0-2 .89-2 2v8c0 1.11.89 2 2 2h8c1.11 0 2-.89 2-2v-8c0-1.11-.89-2-2-2z"/></svg>

<?xml version="1.0" encoding="UTF-8"?><!DOCTYPE svg PUBLIC "-//W3C//DTD SVG 1.1//EN" "http://www.w3.org/Graphics/SVG/1.1/DTD/svg11.dtd"><svg xmlns="http://www.w3.org/2000/svg" xmlns:xlink="http://www.w3.org/1999/xlink" version="1.1" id="mdi-animation" width="24" height="24" viewBox="0 0 24 24"><path d="M4,2C2.89,2 2,2.89 2,4V14H4V4H14V2H4M8,6C6.89,6 6,6.89 6,8V18H8V8H18V6H8M12,10C10.89,10 10,10.89 10,12V20C10,21.11 10.89,22 12,22H20C21.11,22 22,21.11 22,20V12C22,10.89 21.11,10 20,10H12Z" /></svg>
